dist/img/svg/ic_edit.svg

<svg width="21" height="21" viewBox="0 0 21 21" fill="none" xmlns="http://www.w3.org/2000/svg">
<g clip-path="url(#clip0)">
<path d="M16.548 10.7051C16.1535 10.7051 15.8337 11.0249 15.8337 11.4194V18.5621C15.8337 18.9566 15.5139 19.2764 15.1194 19.2764H2.26246C1.86796 19.2764 1.54817 18.9566 1.54817 18.5621V4.27662C1.54817 3.88212 1.86796 3.56233 2.26246 3.56233H10.8338C11.2283 3.56233 11.5481 3.24254 11.5481 2.84804C11.5481 2.45354 11.2283 2.13379 10.8338 2.13379H2.26246C1.07901 2.13379 0.119629 3.09317 0.119629 4.27662V18.5621C0.119629 19.7456 1.07901 20.705 2.26246 20.705H15.1194C16.3029 20.705 17.2623 19.7456 17.2623 18.5621V11.4194C17.2623 11.0249 16.9425 10.7051 16.548 10.7051Z" fill="#929292"/>
<path d="M19.319 1.5063C18.8061 0.99336 18.1105 0.70525 17.3851 0.705334C16.6594 0.703241 15.9631 0.991853 15.4516 1.50676L6.04312 10.9144C5.96507 10.9931 5.90618 11.0887 5.87098 11.1937L4.44244 15.4794C4.31777 15.8537 4.52012 16.2581 4.8944 16.3828C4.96702 16.407 5.04306 16.4193 5.11957 16.4194C5.19624 16.4193 5.27246 16.407 5.34528 16.383L9.63094 14.9544C9.7362 14.9193 9.83183 14.8601 9.91022 14.7816L19.3187 5.37314C20.3865 4.30541 20.3867 2.57416 19.319 1.5063ZM18.3087 4.36384L9.02308 13.6494L6.24883 14.5758L7.17238 11.8051L16.4616 2.51958C16.9722 2.00991 17.7994 2.01074 18.3091 2.52142C18.5526 2.76538 18.6898 3.09563 18.6908 3.44029C18.6917 3.78678 18.5541 4.11925 18.3087 4.36384Z" fill="#929292"/>
</g>
<defs>
<clipPath id="clip0">
<rect width="20" height="20" fill="white" transform="translate(0.119629 0.705078)"/>
</clipPath>
</defs>
</svg>

<svg width="21" height="21" viewBox="0 0 21 21" fill="none" xmlns="http://www.w3.org/2000/svg"><g clip-path="url(#clip0)" fill="#929292"><path d="M16.548 10.705a.714.714 0 00-.714.714v7.143c0 .395-.32.714-.715.714H2.262a.714.714 0 01-.714-.714V4.277c0-.395.32-.715.714-.715h8.572a.714.714 0 100-1.428H2.262C1.08 2.134.12 3.094.12 4.277v14.285c0 1.184.959 2.143 2.142 2.143H15.12c1.184 0 2.143-.96 2.143-2.143V11.42a.714.714 0 00-.714-.714z"/><path d="M19.319 1.506a2.734 2.734 0 00-3.867 0l-9.409 9.408a.723.723 0 00-.172.28l-1.429 4.285a.714.714 0 00.903.904l4.286-1.429a.714.714 0 00.28-.172l9.408-9.409a2.734 2.734 0 000-3.867zm-1.01 2.858l-9.286 9.285-2.774.927.923-2.77 9.29-9.286a1.306 1.306 0 012.229.92 1.3 1.3 0 01-.382.924z"/></g><defs><clipPath id="clip0"><path fill="#fff" transform="translate(.12 .705)" d="M0 0h20v20H0z"/></clipPath></defs></svg>
